X:249
T:When Joan's ale was new - Helmore
%%VWML:SBG-1-2-310-0
F:http://www.vwml.org/record/SBG/1/2/310
Z:Original Sibelius transcriptions by M. & S. Graebe
M:6/8
I:linebreak $
K:G
V:1 treble nm="P1"
V:1
 D | D2 G G2 G | G3 G,2 B, | D2 D G2 B, | D3 G,2 G | A2 A A2 A |$ B3 G2 B | A2 G F2 E | D3 D2 A | %9
 B2 A A G F | G2 G F2 D | E2 F E F G | A2 G F2 D |$ E2 F G2 E | D2 C B,2 G, | B,2 B, D2 D | %16
 G2 A B2 c | B3 AG F | G3- G2 x | %19
T:When Joan's ale was new - Fone
%%VWML:SBG-1-2--0
F:http://www.vwml.org/record/SBG/1/2/310
Z:Original Sibelius transcriptions by M. & S. Graebe
L:1/8
M:6/8
I:linebreak $
K:C
V:1 treble nm="P1"
V:2 treble 
V:3 treble nm="P2"
V:1
 G | c2 c c2 c | c2 [Gc] z2 E | G2 G GGG | E2 C2 z G | GAG E2 G | c2 c e2 c | BAG B2 A |$ G3 G3 | %9
w: |||||||||
 c2 c c2 c | e2 c B d G | AFA c2 A | GAG ECE | FAA AGF |$ EFG GED |[M:4/4] C4 E2 G2 | c3 d e2 c2 | %17
w: |||||* * * * * When|Joan's ale was|new my boys *|
 d4 c2 B2 | c4 x4 | %19
w: ||
V:2
 x | x6 | e2 x x3 | x6 | x6 | x6 | x6 | x6 |$ x6 | x6 | x6 | x6 | x6 | x6 |$ x6 |[M:4/4] x8 | x8 | %17
 x8 | x8 | %19
V:3
 z |"^or" z6 | cG z z GF | EDC GAG | E2 C2 z G | z6 | G2 c e2 c | z6 |$ z6 | z6 | z6 | %11
 z3 z2"^or" B | AGF E2 E | z6 |$ z6 |[M:4/4] z8 | z8 | z8 | z8 | %19
T:When Joan's ale was new - 2 part arrangement
F:http://www.vwml.org/record/SBG/1/2/310
Z:Original Sibelius transcriptions by M. & S. Graebe
L:1/8
M:6/8
I:linebreak $
K:C
V:1 treble nm="Piano" snm="Pno."
V:2 bass 
V:1
"^F.W.B's taking down" E | A2 A A2 A | cA z2 ED | CB,G, EFE | C3 A,2 E | EFE B,EG | A3 B2 A |$ %7
 GFE G2 F | E3 E2 E | A2 A A2 A | A<cA G<BE | FDF AGF | EFD CA,C |$ DFF FED | CDE ECB, | A,3 C2 D | %16
 A2 A A2 A | B3 A2 G | A3 x3 | %19
V:2
"^H.Fl.S's taking down" E, | E,2 A, A,2 A, | A,3 E,2 C, | E,2 E, A,2 C, | E,3 A,,2 A, | %5
 B,2 B, B,2 B, | C3 A,2 C |$ B,2 A, G,2 F, | E,3 E,2 B, | C2 A, B,A,G, | A,2 F, G,2 E, | %11
 F,2 F, F,G,A, | B,2 A, G,2 E, |$ F,2 G, A,2 F, | E,2 D, C,2 A,, | C,3 E,2 E, | A,2 B, C2 z | %17
 C3 B,A,G, | A,3 x3 | %19

